X: 1
T: Jenny's Bawbee
R: strathspey
B: RSCDS 5-3
Z: 1997 by John Chambers <jc:trillian.mit.edu>
M: C
L: 1/16
K: D
|: f2 \
| "D"a4 {b}a3g fd3 d3f | "Em"g3B e3d "A7"cA3 A3f \
| "D"a4 {b}a3g fd3 d3f | "G"BB3 "A7"c3A "D"d6 :|
|: de \
| "D"f3d "A7"g3e "D"fd3 d2ef | "Em"g3B e3d "A7"cA3 A2de \
| "D"f3d "A7"g3e "D"fd3 fa3 | "G"BB3 "A7"c3A "D"d6 :|
%%center Book05/JennysBawbee_D_JC.abc

%%sep 1 1 500
%%sep 1 1 500

